X:1
T:Yarbrough, 77.77
T:Yarbrough, 77.77
T:William Batchelder Bradbury (1816–1868)
T:Public Domain Courtesy of the Cyber Hymnal™
C:William Batchelder Bradbury (1816–1868)
Z:Public Domain
Z:Courtesy of the Cyber Hymnal™
%%score ( 1 2 ) ( 3 4 )
L:1/8
Q:1/4=115
M:9/8
K:A
V:1 treble 
V:2 treble 
V:3 bass 
V:4 bass 
V:1
 [CE]2 [CA] | [Ec]3 [Ec]3 ([Ec][DB])[CA] | [EB]6 E2 [EG] | [GB]3 [Bd]3 [Bd][Ac][GB] | %4
 [Ac]6 ([Ac][GB])[Ac] | [Ee]3 [Ec]3 (BA)F | [FA]6 (BA)[DF] | [CE]3 [EA]3 [Ac]2 [EB] | [EA]6 |] %9
V:2
 x3 | x9 | x6 E2 x | x9 | x9 | x6 F2 F | x6 F2 x | x9 | x6 |] %9
V:3
 [A,,A,]2 [A,,A,] | [A,,A,]3 [A,,A,]3 [A,,A,]2 [A,,A,] | [E,G,]6 [E,E]2 [E,E] | %3
 [E,E]3 [E,E]3 [E,E]2 [E,E] | [A,E]6 [A,E]2 [A,E] | [A,C]3 A,3 [D,D]2 [D,D] | %6
 [D,D]6 [D,D]2 [D,A,] | [E,A,]3 [E,C]3 [E,E]2 [E,D] | [A,,A,C]6 |] %9
V:4
 x3 | x9 | x9 | x9 | x9 | x3 A,3 x3 | x9 | x9 | x6 |] %9

